public/app/img/twitter.svg

<svg width="20px" height="17px" viewBox="0 0 20 17" version="1.1" xmlns="http://www.w3.org/2000/svg" xmlns:xlink="http://www.w3.org/1999/xlink">
    <g id="Symbols" stroke="none" stroke-width="1" fill="none" fill-rule="evenodd">
        <g id="icon/twitter" fill-rule="nonzero" fill="#4082FF">
            <path d="M20.0052377,1.9226307 C19.2689326,2.24889312 18.4788879,2.47016057 17.6487999,2.56894476 C18.4963761,2.06139274 19.1451745,1.25634405 19.4526738,0.300013679 C18.6576278,0.770039467 17.7800436,1.11133853 16.8449607,1.2963546 C16.0961686,0.49754938 15.0310841,0 13.8497271,0 C11.583313,0 9.74567206,1.83764099 9.74567206,4.10281291 C9.74567206,4.42407401 9.78192344,4.73784949 9.85194189,5.03789586 C6.44169706,4.8666089 3.41773046,3.23274709 1.39383126,0.750034197 C1.04004524,1.35509556 0.838783068,2.0601179 0.838783068,2.81270179 C0.838783068,4.23657364 1.56384337,5.49291769 2.66393711,6.22794794 C1.9913743,6.20545835 1.35882203,6.02044229 0.805048691,5.71291029 L0.805048691,5.76416562 C0.805048691,7.75181345 2.22016006,9.41068185 4.09653674,9.78823229 C3.75275336,9.88074033 3.39023956,9.93199566 3.01520612,9.93199566 C2.75020166,9.93199566 2.493925,9.90574691 2.24264965,9.85573374 C2.76517293,11.4871112 4.28031065,12.6734368 6.07545678,12.7059618 C4.6715902,13.8060555 2.90145066,14.4598552 0.978819961,14.4598552 C0.647556219,14.4598552 0.321261106,14.4398499 0,14.4035985 C1.81639356,15.5699516 3.97281134,16.25 6.29048075,16.25 C13.8397899,16.25 17.9663672,9.99701279 17.9663672,4.57411354 L17.9526054,4.04282979 C18.7588963,3.46774364 19.456433,2.74520034 20.0052377,1.9226307 Z" id="Shape"></path>
        </g>
    </g>
</svg>

<svg width="20" height="17" viewBox="0 0 20 17" xmlns="http://www.w3.org/2000/svg"><path d="M20.00524 1.92263c-.7363.32626-1.52635.54753-2.35644.6463.84758-.50754 1.49637-1.3126 1.80387-2.26892-.79504.47004-1.67263.81134-2.6077.99635C16.09616.49755 15.03106 0 13.84972 0 11.5833 0 9.74567 1.83764 9.74567 4.1028c0 .32127.03625.63505.10627.9351-3.41024-.1713-6.4342-1.80515-8.4581-4.28787-.3538.60507-.55506 1.3101-.55506 2.06267 0 1.42387.72506 2.68022 1.82516 3.41525-.67257-.0225-1.30512-.2075-1.8589-.51504v.05127c0 1.98764 1.41512 3.6465 3.2915 4.02406-.3438.0925-.7063.14377-1.08133.14377-.265 0-.52128-.02625-.77255-.07627.52252 1.63138 2.03766 2.8177 3.8328 2.85023-1.40386 1.1001-3.174 1.7539-5.09663 1.7539-.33126 0-.65756-.02-.97882-.05626C1.8164 15.56995 3.9728 16.25 6.29048 16.25c7.5493 0 11.6759-6.253 11.6759-11.6759l-.01377-.53127c.8063-.5751 1.50383-1.29763 2.05264-2.1202z" fill-rule="nonzero" fill="#4082FF"/></svg>
